X:1
T:Donna, tue chiome d'oro
T:Annibal Stabile
T:Source : Canzonette a la Romana a tre voce---Venetia---Ang.Gardano---1601. Editor : André Vierendeels (23/01/17).
T:Notes : Original clefs : C1, C2, C3 Editorial accidentals above the staff
T:Donna, tue chiome d'oro
T:©
T:©
C:Annibal Stabile
Z:©
%%score [ 1 2 3 ]
L:1/8
Q:1/4=120
M:4/4
K:F
V:1 treble nm="Soprano 1" snm="S 1"
V:2 treble nm="Soprano 2" snm="S 2"
V:3 treble-8 nm="Tenor" snm="T"
V:1
"^1)" c4 A4 | c4 d2 d2 | c2 B2 c4 | c4 z2 G2 | B6 B2 | A4 G2 c2- | c2 c2 B2 A2 | G4 F4 :: %8
w: Don- na,|Don- na tue|chio- me d'o-|ro mi|ten- gon|pre- s'ond' io|_ mi- se- ro|mo- ro,|
w: Don- na,|Don- na tuoi|vi- vi ra-|i mi|dan- no'all'|al- ma mil-|* le pe- n'e|gua- i,|
 c4 d2 d2- | dc B2 A2 A2 | B2 c2 d4 | c2 c2 A2 B2 | cBAG F2 G2 | A4 G4 | B4 A4 | G4 !fermata!F4 :| %16
w: e pur al-|* tro non bra- mo|che star pre-|so, in quel fin|o- * * * * ro|che m'ha'il|lac- cio|te- so.|
w: e pur al-|* tro non bra- mo|ch'es- ser mor-|to, dal vi- vo|rag- * * * * gio'e|que- sto'e'l|mio con-|for- to.|
V:2
"^2)""^1)" z4 c4 | A6 B2 | A2 B2 A4 | A2 E2 G4- | G2 G2 F4 | E8 | A2 A2 G2 F2 | E4 F4 :: %8
w: Don-|na, tue|chio- me d'o-|ro mi ten-|* gon pre-|s'ond'|io mi- se- ro|mo- ro,|
w: Don-|na, tuoi|dol- ci'ac- cen-|ti mi dan-|* no'all' l'al-|ma|mil- l''as- pri tor-|men- ti,|
 A4 B2 B2- | BA G2 ^F2 F2 | G2 A2 B4 | A2 A2 F2 G2 | A6 G2- | G2 F4 E2 | F2 G4 F2- | %15
w: e pur al-|* tro non bra- mo|che star pre-|so, in quel fin|o- ro|_ che m'ha'il|lac- cio te-|
w: e pur al-|* tro non bra- mo|che sen- ti-|re, gli'ac- cen- ti|sol ca-|* gion del|mio mar- ti-|
 FE E2 !fermata!F4 :| %16
w: * * * so.|
w: * * * re/|
V:3
"^3)""^1)" z8 |"^4)" f4 d2 B2 | f2 g2 f4 | f2 c2 _e4- | e2 _e2 d4 | c2 c4 c2 | A4 B4 | c4 F4 :: %8
w: |Don- na, tue|chio- me d'o-|ro mi ten-|* gon pre-|s'ond' io mi-|se- ro|mo- ro,|
w: |Don- na seh|per pie- ta-|te'an- ci- de-|* te, pren-|de- te, e|tor- men-|ta- te,|
 f4 B2 B2- | BF G2 d2 d2 |"^-natural" G2 F2 B4 | F4 z4 | z2 f2 d2 e2 | fedc B2 c2 | d2 e2 f2 F2 | %15
w: e pur al-|* tro non bra- mo|che star pre-|so,|in quel fin|o- * * * * ro|che m'ha'il lac- cio|
w: Quest' al- ma|_ mi- a, che sol|bra- ma'e spet-|ta,|Ch'e'A- mor in|voi _ _ _ _ fa-|cia di me ven-|
 c4 !fermata!F4 :| %16
w: te- so.|
w: det- ta.|

